src/assets/icons/scrollTop.svg

<svg width="37" height="37" viewBox="0 0 37 37" fill="none" xmlns="http://www.w3.org/2000/svg">
<path d="M18.5002 0.583374C8.62808 0.583374 0.583496 8.62796 0.583496 18.5C0.583496 28.3721 8.62808 36.4167 18.5002 36.4167C28.3722 36.4167 36.4168 28.3721 36.4168 18.5C36.4168 8.62796 28.3722 0.583374 18.5002 0.583374ZM25.7743 21.7071C25.5056 21.9759 25.1652 22.1013 24.8247 22.1013C24.4843 22.1013 24.1439 21.9759 23.8752 21.7071L18.5002 16.3321L13.1252 21.7071C12.6056 22.2267 11.7456 22.2267 11.226 21.7071C10.7064 21.1875 10.7064 20.3275 11.226 19.808L17.5506 13.4834C18.0702 12.9638 18.9302 12.9638 19.4497 13.4834L25.7743 19.808C26.2939 20.3455 26.2939 21.1875 25.7743 21.7071Z" fill="#47BAB8"/>
</svg>

<svg xmlns="http://www.w3.org/2000/svg" width="37" height="37" fill="none"><path fill="#47BAB8" d="M18.5.583C8.628.583.583 8.628.583 18.5c0 9.872 8.045 17.917 17.917 17.917 9.872 0 17.917-8.045 17.917-17.917C36.417 8.628 28.372.583 18.5.583Zm7.274 21.124c-.268.269-.609.394-.95.394-.34 0-.68-.125-.949-.394L18.5 16.332l-5.375 5.375c-.52.52-1.38.52-1.899 0-.52-.52-.52-1.38 0-1.899l6.325-6.325c.52-.52 1.38-.52 1.899 0l6.324 6.325c.52.538.52 1.38 0 1.9Z"/></svg>
